resources/dark/slack.svg

<svg fill="none" height="16" viewBox="0 0 16 16" width="16" xmlns="http://www.w3.org/2000/svg" xmlns:xlink="http://www.w3.org/1999/xlink"><linearGradient id="a" gradientUnits="userSpaceOnUse" x1="8" x2="8" y1="2" y2="14"><stop offset="0" stop-color="#587ef7"/><stop offset="1" stop-color="#a764f7"/></linearGradient><path d="m8.54112 6.96866.51701 1.54567-1.60193.53576-.51701-1.54567zm1.10903 6.52824c-4.12537 1.2376-5.90945.2786-7.14706-3.84675-1.23761-4.12537-.2786-5.90945 3.84676-7.14706 4.12535-1.23761 5.90945-.2786 7.14705 3.84676 1.2376 4.12535.2786 5.90945-3.84675 7.14705zm2.15915-5.25581c-.1045-.32681-.4608-.49826-.7876-.39378l-.7769.25984-.51697-1.54567.77687-.25984c.3268-.10448.4982-.46076.3938-.78757-.1045-.32682-.4608-.49826-.7876-.39379l-.77685.25985-.26788-.80632c-.10448-.32682-.46076-.49826-.78757-.39379-.32682.10447-.49826.46076-.39379.78757l.26788.80632-1.60192.53844-.26789-.80632c-.10447-.32681-.46075-.49826-.78756-.39378-.32682.10447-.49826.46075-.39379.78757l.26788.80632-.77685.25984c-.32682.10447-.49826.46076-.39379.78757.08572.24913.32682.41254.57595.42325.11519.01607.20626-.02679.98848-.28663l.51701 1.54567-.77686.25984c-.32681.10448-.49826.46072-.39378.78762.08572.2491.32681.4125.57594.4232.11519.0161.20627-.0268.98848-.2866l.26788.8063c.09912.2893.42325.4983.78757.3938.32681-.1045.49826-.4608.39379-.7876l-.26789-.8063 1.60193-.53845.26788.80635c.09912.2893.42325.4982.78755.3938.3268-.1045.4983-.4608.3938-.7876l-.2679-.80634.7769-.25984c.3268-.11251.4982-.46879.3938-.79293z" fill="url(#a)"/></svg>

<svg width="16" height="16" viewBox="0 0 16 16" fill="none" xmlns="http://www.w3.org/2000/svg">
<path d="M8.54112 6.96866L9.05813 8.51433L7.4562 9.05009L6.93919 7.50442L8.54112 6.96866ZM9.65015 13.4969C5.52478 14.7345 3.7407 13.7755 2.50309 9.65015C1.26548 5.52478 2.22449 3.7407 6.34985 2.50309C10.4752 1.26548 12.2593 2.22449 13.4969 6.34985C14.7345 10.4752 13.7755 12.2593 9.65015 13.4969ZM11.8093 8.24109C11.7048 7.91428 11.3485 7.74283 11.0217 7.84731L10.2448 8.10715L9.72783 6.56148L10.5047 6.30164C10.8315 6.19716 11.0029 5.84088 10.8985 5.51407C10.794 5.18725 10.4377 5.01581 10.1109 5.12028L9.33405 5.38013L9.06617 4.57381C8.96169 4.24699 8.60541 4.07555 8.2786 4.18002C7.95178 4.28449 7.78034 4.64078 7.88481 4.96759L8.15269 5.77391L6.55077 6.31235L6.28288 5.50603C6.17841 5.17922 5.82213 5.00777 5.49532 5.11225C5.1685 5.21672 4.99706 5.573 5.10153 5.89982L5.36941 6.70614L4.59256 6.96598C4.26574 7.07045 4.0943 7.42674 4.19877 7.75355C4.28449 8.00268 4.52559 8.16609 4.77472 8.1768C4.88991 8.19287 4.98098 8.15001 5.7632 7.89017L6.28021 9.43584L5.50335 9.69568C5.17654 9.80016 5.00509 10.1564 5.10957 10.4833C5.19529 10.7324 5.43638 10.8958 5.68551 10.9065C5.8007 10.9226 5.89178 10.8797 6.67399 10.6199L6.94187 11.4262C7.04099 11.7155 7.36512 11.9245 7.72944 11.82C8.05625 11.7155 8.2277 11.3592 8.12323 11.0324L7.85534 10.2261L9.45727 9.68765L9.72515 10.494C9.82427 10.7833 10.1484 10.9922 10.5127 10.8878C10.8395 10.7833 11.011 10.427 10.9065 10.1002L10.6386 9.29386L11.4155 9.03402C11.7423 8.92151 11.9137 8.56523 11.8093 8.24109Z" fill="url(#paint0_linear)"/>
<defs>
<linearGradient id="paint0_linear" x1="8" y1="2" x2="8" y2="14" gradientUnits="userSpaceOnUse">
<stop stop-color="#587EF7"/>
<stop offset="1" stop-color="#A764F7"/>
</linearGradient>
</defs>
</svg>
